svgs/thin/align-right.svg

<svg xmlns="http://www.w3.org/2000/svg" viewBox="0 0 448 512"><!--! Font Awesome Pro 6.4.0 by @fontawesome - https://fontawesome.com License - https://fontawesome.com/license (Commercial License) Copyright 2023 Fonticons, Inc. --><path d="M440 56c4.4 0 8 3.6 8 8s-3.6 8-8 8H168c-4.4 0-8-3.6-8-8s3.6-8 8-8H440zm0 128c4.4 0 8 3.6 8 8s-3.6 8-8 8H8c-4.4 0-8-3.6-8-8s3.6-8 8-8H440zm8 136c0 4.4-3.6 8-8 8H168c-4.4 0-8-3.6-8-8s3.6-8 8-8H440c4.4 0 8 3.6 8 8zm-8 120c4.4 0 8 3.6 8 8s-3.6 8-8 8H8c-4.4 0-8-3.6-8-8s3.6-8 8-8H440z"/></svg>

<svg xmlns="http://www.w3.org/2000/svg" viewBox="0 0 448 512"><!--! Font Awesome Pro 6.3.0 by @fontawesome - https://fontawesome.com License - https://fontawesome.com/license (Commercial License) Copyright 2023 Fonticons, Inc. --><path d="M440 56C444.4 56 448 59.58 448 64C448 68.42 444.4 72 440 72H168C163.6 72 160 68.42 160 64C160 59.58 163.6 56 168 56H440zM440 184C444.4 184 448 187.6 448 192C448 196.4 444.4 200 440 200H8C3.582 200 0 196.4 0 192C0 187.6 3.582 184 8 184H440zM440 328H168C163.6 328 160 324.4 160 320C160 315.6 163.6 312 168 312H440C444.4 312 448 315.6 448 320C448 324.4 444.4 328 440 328zM440 440C444.4 440 448 443.6 448 448C448 452.4 444.4 456 440 456H8C3.582 456 0 452.4 0 448C0 443.6 3.582 440 8 440H440z"/></svg>
